file/eni.svg

<svg clip-rule="evenodd" fill-rule="evenodd" stroke-linejoin="round" stroke-miterlimit="1.41421" viewBox="0 0 560 400" xmlns="http://www.w3.org/2000/svg"><g transform="matrix(8.18467 0 0 -8.18467 -3045.45 5130.17)"><path d="m418.776 585.872c.562 0 1.017.455 1.017 1.018v20.449c0 .562-.455 1.018-1.017 1.018h-24.946c-.562 0-1.018-.456-1.018-1.018v-20.449c0-.563.456-1.018 1.018-1.018z" fill="#ffd41f"/><g fill-rule="nonzero"><path d="m408.926 616.281c0 .114-.142.283-.255.341-.68.396-1.362-.114-2.042-.114-.256 0-.511-.057-.709.085 0 .114.114.143.114.255-.169 0-.37.057-.566.085-.001 0-.426.028-.682.113-.936.396-1.813.597-2.89.086-.341-.142-.68-.284-1.049-.284-.17 0 .255-.34.199-.51-.567-.086-1.077-.255-1.559-.709v-.028c.339-.426.85-.482 1.36-.482.17 0 .482-.397 1.275-.51 1.162-.226 1.843.426 2.664.086-.056.141-.056.226-.056.34.965-.257 1.729-.227 2.467.14.68.172.992 1.135 1.729 1.106" fill="#cd1041"/><path d="m406.431 611.746c-.097.131-.058.341-.166.234-.218-.218-.177-.547-.15-.831.012-.138-.095-.124-.138-.081-.247.234-.34.423-.453.735-.283-.084-.314-.294-.325-.523-.01-.195.155-.497-.016-.468-.311.055-.453.566-.481.934-.112 0-.195-.068-.322-.3-.085-.17-.132-.437-.386-.408-.255.028-.338.388-.366.682-.01.153-.166.002-.222-.055-.124-.124-.327-.402-.461-.627-.199.226-.199.565-.227.963l-.028.002c-.312-.143-.68-1.164-1.134-1.164-.057 0-.076.057-.057.085.216.32.203.682.175 1.079-.008.13-.071.356-.162.266 0 0-.372-.419-.523-.55-.137-.119-.397-.341-.651-.397 0 .226.453.765.198 1.614-.198-.226-.283-.41-.876-.581-.342-.085-.604-.03-.858.085-.02-.253-.079-.569-.306-.783 0 0-.783.403-1.01.374-.199-.028-.492-.824-.635-1.305-.338-.012-.762.313-.833.663-.271-.717-.251-1.584-.089-2.436.422-2.226 1.173-3.698 1.599-6.244.163-.983-.906-1.634-1.304-2.442.454 0 .849-.022 1.358-.003.127.006.319.143.355.301.109.472.133 1.036.303 1.517.481.085.622.653 1.048.907.03.171-.226.199-.255.397.142.141.341.313.482.511.057.17-.227.199-.227.34s.05.204.109.289c.112.162.405.184.26.405-.136.208-.397.127-.539.298.085.284.341.623.596.736-.199.255-.539.37-.852.342v.593c0 .079.086.028.086.028.396-.198.681-.338 1.078-.51-.03-.34.084-.652.141-.963.056-.481.379-.788.313-1.33-.046-.361-.423-.524-.649-.706-.095-.077-.259-.146-.259-.317.254-.339.675-.607.987-.89.235.287.345.75.543 1.061.199.055.369.084.511.169.113.057.227.057.339.114-.084.283-.368.425-.565.595.112.114.287.107.453.142.092.021.198.056.255.171-.199.058-.426.198-.455.426.228.168.597.366.682.736-.114.14-.312.14-.454.226-.028.199.052.427.095.603.022.093.089.187.173.187.596-.112 1.224-.08 1.79.003 0 0 .246.051.203-.172-.17-.737-.419-1.415-.532-2.18-.255-.312-.595-.454-.851-.679-.197-.172-.453-.199-.538-.483l1.135-.915c.204.241.396.66.538.944.055.113 0 .282.113.396.254-.029.51.058.736.085.029.256-.197.369-.311.568.199.056.453.008.624.109.108.065.255.204.255.344h-.2c-.055 0-.141 0-.112.084.339.086.709.144.935.454-.056 0-.114.029-.141.084.023.079.141.114.141.114.226.086.426.341.426.567-.2 0-.454.058-.511.255.114.198.341.314.568.342.311-.71.736-1.362 1.216-1.985.029-.055.058-.142.029-.228l-1.077-1.303c-.056-.057-.056-.17.029-.17l1.531.056c.109.014.199.057.226.142.029.425.029.851.085 1.275.228.173.398.541.71.541-.03.168-.198.197-.312.31-.029.228.169.342.282.51-.141.085-.339-.113-.481-.028.142.113.255.17.368.425.029.07-.028.056-.028.056-.141-.056-.265-.013-.368.028-.135.066-.256.171-.256.313.085.283.316.506.514.705.08.074.161.108.198.023.087-.228.138-.417.28-.616.029-.14.029-.309.113-.425.368-.226.709-.536 1.02-.935.142-.255.37-.453.313-.763l-.908-1.362c-.038-.057-.022-.122-.022-.122.01-.043.062-.115.124-.1l1.429.335.071.035.016.049-.058 1.05c.142.17.369.257.538.425-.056.087-.112.114-.169.171 0 .171.169.226.283.31-.058.171-.311.144-.369.342.227.14.398.339.426.623-.084.058-.277.005-.39.001-.108-.003-.556.051-.697.198-.108.113-.132.367-.16.594 0 0 .003.074.057.057 1.075-.34 2.183-.623 3.287-.823 0 0 .148-.023.199-.113.453-.794.907-1.516 1.394-2.295.114-.183.194-.351.234-.508-.255-.455-.648-.746-1.017-1.173-.14-.19.042-.349.153-.331l1.361.226s.095.01.115.116c.029.337.14.649.084.99.113.198.396.198.511.397-.115.142-.237.26-.45.377-.342.187-.419.56-.492.794-.184.582.347.415.347.786-.115.14-.227.253-.369.365 0 .2.17.256.34.313-.035.108-.113.186-.198.229-.114.055-.283.085-.398.167-.056.142.426.255.368.681-.141-.085-.368-.029-.509.028-.171.142.112.284.028.424-.34.115-.68.284-.992.455-.221.119-.323.469-.425.709-.398.992-.709 1.983-1.417 2.833-.17.198-.227.228-.454.398-.073.056-.045.178.108.302.142.113.287.293.346.435.312.623.282 1.53-.059 2.125-.395.738-.962.992-1.643.992-1.047 0-1.728-.85-2.096-1.729-.454-1.105-.313-1.652-1.048-2.19-.119-.076-.421-.14-.655.121-.112.141-.254.369-.169.567.086-.057.172-.209.278-.285.114-.085.263-.088.375-.027.153.085.229.254.229.424 0 .207-.115.387-.257.512-.227.197-.597.169-.852.027-.339-.169-.538-.537-.481-.963.028-.284.186-.481.3-.764.031-.078-.002-.16-.13-.172-.198-.014-.347.05-.482.227m-7.596 4.337.766.425c.141-.028.141-.169.225-.256.2.058.114.342.228.484.113 0 .113-.171.198-.256.198 0 .141.311.228.453.112.17.424.113.368.397l-.284 1.276c-.034.151-.116.221-.171.198-1.019-.368-1.814-.737-2.778-1.076-.084-.029-.169-.029-.311-.029l-1.559 1.162c.085-.68.17-1.305.227-1.702.028-.084 0-.113-.057-.113-.312 0-.595-.255-.793-.538-.227-.482-.51-.879-.964-1.077.085-.199.254-.312.425-.367.142-.058.284-.029.426-.114 0-.057-.029-.087-.058-.142-.368-.652.199-1.531-.509-2.013.312-.141.68 0 .935.283l.056-.028c-.197-.453-.283-.972-.255-1.474 0 0 .022-.118-.028-.265 0 0-.053-.164-.085-.245.91.149 1.252 1.314 1.321 1.514l.032.026.008-.037s-.263-.853 0-1.219c.059-.082.16-.164.26-.154.107.407.335.92.703 1.202.34-.027.681-.198 1.021-.339.199.481-.17 1.161-.17 1.161l.003.014.025-.014s.283-.31.426-.425c.168-.113.68-.226.963-.056.1.059.255.197.283.311-.907-.057-.965 1.077-1.389 1.616l.028.029c.228-.114.342-.426.567-.539 0 0 1.19-.246 1.239-.256.084-.017.116.114.116.114.011.04.126.49.063.708-.141.086-.198-.141-.312-.141-.312.085-.51.114-.85.255l-.567 1.134c-.042.086 0 .113 0 .113m9.969-4.315.037.035c.652.68 1.02 1.814 1.302 2.353.34.622.681.908 1.191.935.426.028.992-.34 1.163-.766.17-.368.057-.849-.142-1.134-.226-.339-.651-.424-1.021-.339-.226.058-.424.198-.594.368-.257-.397-.597-.849-.993-1.104-.284-.2-.624-.397-.935-.397zm-10.422 5.053c0-.199-.142-.341-.341-.341-.171 0-.312.142-.312.341 0 .197.141.338.312.338.199 0 .341-.141.341-.338" fill="#231f20"/><path d="m18.022 42.36h-1.095v-7.336c1.47-1.208 2.608-1.77 3.655-1.77 1.755 0 2.439.862 2.439 2.327v6.779h-1.053l-.006-6.642c-.004-1.217-.487-1.579-1.462-1.579-.817 0-1.883.539-2.478 1.249zm10.261 0h-1.006l.002-9.921 2.176-.595c.343-.094.514.053.514.351l.011 10.165h-1.001v-9.396l-.696.162zm-20.434-.001h-1.58c-1.37-1.055-2.032-2.902-2.032-4.938 0-3.623 2.335-5.557 5.046-5.56 2.966-.003 4.219 2.148 4.216 4.427-.001 1.283-.739 1.745-1.755 1.785l-4.807.251c.085 2.01 1.567 3.135 4.201 3.215h1.754l.012.82h-1.809c-2.855.028-5.186-1.168-5.298-4.741l5.183-.244c1.475.005 1.7-.772 1.514-2.046-.244-1.665-1.39-2.637-3.236-2.637-2.504 0-4.048 2.015-4.095 4.688-.045 2.492.952 4.213 2.686 4.98zm8.438-7.635c1.46-1.257 2.928-2.056 4.438-2.056 1.913 0 2.975.949 2.938 2.914v6.777h1.047v-6.784c.059-2.185-1.053-3.697-3.797-3.697-1.654 0-3.681.795-5.675 2.585l.002 7.896h1.047zm-4.425.696c-.202-1.385-1.068-2.17-2.605-2.17-1.89 0-3.173 1.5-3.42 3.807l5.004-.241c.96-.046 1.171-.364 1.021-1.396zm-.896.081c-.005.286-.157.523-.706.55l-3.27.171c.1-1.096.914-2.085 2.166-2.085 1.393 0 1.798.804 1.81 1.364zm17.663-5.981c.777 0 1.407-.63 1.407-1.408s-.63-1.408-1.407-1.408c-.779 0-1.408.63-1.408 1.408s.629 1.408 1.408 1.408z" fill="#231f20" transform="matrix(.8 0 0 -.8 392.393 619.761)"/></g></g></svg>

<?xml version="1.0" encoding="UTF-8" standalone="no"?>
<!DOCTYPE svg PUBLIC "-//W3C//DTD SVG 1.1//EN" "http://www.w3.org/Graphics/SVG/1.1/DTD/svg11.dtd">
<svg width="100%" height="100%" viewBox="0 0 560 400" version="1.1" xmlns="http://www.w3.org/2000/svg" xmlns:xlink="http://www.w3.org/1999/xlink" xml:space="preserve" xmlns:serif="http://www.serif.com/" style="fill-rule:evenodd;clip-rule:evenodd;stroke-linejoin:round;stroke-miterlimit:1.41421;">
    <g transform="matrix(8.18467,-2.46519e-31,2.46519e-31,-8.18467,-3045.45,5130.17)">
        <path id="path731" d="M418.776,585.872C419.338,585.872 419.793,586.327 419.793,586.89L419.793,607.339C419.793,607.901 419.338,608.357 418.776,608.357L393.83,608.357C393.268,608.357 392.812,607.901 392.812,607.339L392.812,586.89C392.812,586.327 393.268,585.872 393.83,585.872L418.776,585.872" style="fill:rgb(255,212,31);"/>
        <path id="path735" d="M408.926,616.281C408.926,616.395 408.784,616.564 408.671,616.622C407.991,617.018 407.309,616.508 406.629,616.508C406.373,616.508 406.118,616.451 405.92,616.593C405.92,616.707 406.034,616.736 406.034,616.848C405.865,616.848 405.664,616.905 405.468,616.933C405.467,616.933 405.042,616.961 404.786,617.046C403.85,617.442 402.973,617.643 401.896,617.132C401.555,616.99 401.216,616.848 400.847,616.848C400.677,616.848 401.102,616.508 401.046,616.338C400.479,616.252 399.969,616.083 399.487,615.629L399.487,615.601C399.826,615.175 400.337,615.119 400.847,615.119C401.017,615.119 401.329,614.722 402.122,614.609C403.284,614.383 403.965,615.035 404.786,614.695C404.73,614.836 404.73,614.921 404.73,615.035C405.695,614.778 406.459,614.808 407.197,615.175C407.877,615.347 408.189,616.31 408.926,616.281" style="fill:rgb(205,16,65);fill-rule:nonzero;"/>
        <path id="path739" d="M406.431,611.746C406.334,611.877 406.373,612.087 406.265,611.98C406.047,611.762 406.088,611.433 406.115,611.149C406.127,611.011 406.02,611.025 405.977,611.068C405.73,611.302 405.637,611.491 405.524,611.803C405.241,611.719 405.21,611.509 405.199,611.28C405.189,611.085 405.354,610.783 405.183,610.812C404.872,610.867 404.73,611.378 404.702,611.746C404.59,611.746 404.507,611.678 404.38,611.446C404.295,611.276 404.248,611.009 403.994,611.038C403.739,611.066 403.656,611.426 403.628,611.72C403.618,611.873 403.462,611.722 403.406,611.665C403.282,611.541 403.079,611.263 402.945,611.038C402.746,611.264 402.746,611.603 402.718,612.001L402.69,612.003C402.378,611.86 402.01,610.839 401.556,610.839C401.499,610.839 401.48,610.896 401.499,610.924C401.715,611.244 401.702,611.606 401.674,612.003C401.666,612.133 401.603,612.359 401.512,612.269C401.512,612.269 401.14,611.85 400.989,611.719C400.852,611.6 400.592,611.378 400.338,611.322C400.338,611.548 400.791,612.087 400.536,612.936C400.338,612.71 400.253,612.526 399.66,612.355C399.318,612.27 399.056,612.325 398.802,612.44C398.782,612.187 398.723,611.871 398.496,611.657C398.496,611.657 397.713,612.06 397.486,612.031C397.287,612.003 396.994,611.207 396.851,610.726C396.513,610.714 396.089,611.039 396.018,611.389C395.747,610.672 395.767,609.805 395.929,608.953C396.351,606.727 397.102,605.255 397.528,602.709C397.691,601.726 396.622,601.075 396.224,600.267C396.678,600.267 397.073,600.245 397.582,600.264C397.709,600.27 397.901,600.407 397.937,600.565C398.046,601.037 398.07,601.601 398.24,602.082C398.721,602.167 398.862,602.735 399.288,602.989C399.318,603.16 399.062,603.188 399.033,603.386C399.175,603.527 399.374,603.699 399.515,603.897C399.572,604.067 399.288,604.096 399.288,604.237C399.288,604.378 399.338,604.441 399.397,604.526C399.509,604.688 399.802,604.71 399.657,604.931C399.521,605.139 399.26,605.058 399.118,605.229C399.203,605.513 399.459,605.852 399.714,605.965C399.515,606.22 399.175,606.335 398.862,606.307L398.862,606.9C398.862,606.979 398.948,606.928 398.948,606.928C399.344,606.73 399.629,606.59 400.026,606.418C399.996,606.078 400.11,605.766 400.167,605.455C400.223,604.974 400.546,604.667 400.48,604.125C400.434,603.764 400.057,603.601 399.831,603.419C399.736,603.342 399.572,603.273 399.572,603.102C399.826,602.763 400.247,602.495 400.559,602.212C400.794,602.499 400.904,602.962 401.102,603.273C401.301,603.328 401.471,603.357 401.613,603.442C401.726,603.499 401.84,603.499 401.952,603.556C401.868,603.839 401.584,603.981 401.387,604.151C401.499,604.265 401.674,604.258 401.84,604.293C401.932,604.314 402.038,604.349 402.095,604.464C401.896,604.522 401.669,604.662 401.64,604.89C401.868,605.058 402.237,605.256 402.322,605.626C402.208,605.766 402.01,605.766 401.868,605.852C401.84,606.051 401.92,606.279 401.963,606.455C401.985,606.548 402.052,606.642 402.136,606.642C402.732,606.53 403.36,606.562 403.926,606.645C403.926,606.645 404.172,606.696 404.129,606.473C403.959,605.736 403.71,605.058 403.597,604.293C403.342,603.981 403.002,603.839 402.746,603.614C402.549,603.442 402.293,603.415 402.208,603.131L403.343,602.216C403.547,602.457 403.739,602.876 403.881,603.16C403.936,603.273 403.881,603.442 403.994,603.556C404.248,603.527 404.504,603.614 404.73,603.641C404.759,603.897 404.533,604.01 404.419,604.209C404.618,604.265 404.872,604.217 405.043,604.318C405.151,604.383 405.298,604.522 405.298,604.662L405.098,604.662C405.043,604.662 404.957,604.662 404.986,604.746C405.325,604.832 405.695,604.89 405.921,605.2C405.865,605.2 405.807,605.229 405.78,605.284C405.803,605.363 405.921,605.398 405.921,605.398C406.147,605.484 406.347,605.739 406.347,605.965C406.147,605.965 405.893,606.023 405.836,606.22C405.95,606.418 406.177,606.534 406.404,606.562C406.715,605.852 407.14,605.2 407.62,604.577C407.649,604.522 407.678,604.435 407.649,604.349L406.572,603.046C406.516,602.989 406.516,602.876 406.601,602.876L408.132,602.932C408.241,602.946 408.331,602.989 408.358,603.074C408.387,603.499 408.387,603.925 408.443,604.349C408.671,604.522 408.841,604.89 409.153,604.89C409.123,605.058 408.955,605.087 408.841,605.2C408.812,605.428 409.01,605.542 409.123,605.71C408.982,605.795 408.784,605.597 408.642,605.682C408.784,605.795 408.897,605.852 409.01,606.107C409.039,606.177 408.982,606.163 408.982,606.163C408.841,606.107 408.717,606.15 408.614,606.191C408.479,606.257 408.358,606.362 408.358,606.504C408.443,606.787 408.674,607.01 408.872,607.209C408.952,607.283 409.033,607.317 409.07,607.232C409.157,607.004 409.208,606.815 409.35,606.616C409.379,606.476 409.379,606.307 409.463,606.191C409.831,605.965 410.172,605.655 410.483,605.256C410.625,605.001 410.853,604.803 410.796,604.493L409.888,603.131C409.85,603.074 409.866,603.009 409.866,603.009C409.876,602.966 409.928,602.894 409.99,602.909L411.419,603.244L411.49,603.279L411.506,603.328L411.448,604.378C411.59,604.548 411.817,604.635 411.986,604.803C411.93,604.89 411.874,604.917 411.817,604.974C411.817,605.145 411.986,605.2 412.1,605.284C412.042,605.455 411.789,605.428 411.731,605.626C411.958,605.766 412.129,605.965 412.157,606.249C412.073,606.307 411.88,606.254 411.767,606.25C411.659,606.247 411.211,606.301 411.07,606.448C410.962,606.561 410.938,606.815 410.91,607.042C410.91,607.042 410.913,607.116 410.967,607.099C412.042,606.759 413.15,606.476 414.254,606.276C414.254,606.276 414.402,606.253 414.453,606.163C414.906,605.369 415.36,604.647 415.847,603.868C415.961,603.685 416.041,603.517 416.081,603.36C415.826,602.905 415.433,602.614 415.064,602.187C414.924,601.997 415.106,601.838 415.217,601.856L416.578,602.082C416.578,602.082 416.673,602.092 416.693,602.198C416.722,602.535 416.833,602.847 416.777,603.188C416.89,603.386 417.173,603.386 417.288,603.585C417.173,603.727 417.051,603.845 416.838,603.962C416.496,604.149 416.419,604.522 416.346,604.756C416.162,605.338 416.693,605.171 416.693,605.542C416.578,605.682 416.466,605.795 416.324,605.907C416.324,606.107 416.494,606.163 416.664,606.22C416.629,606.328 416.551,606.406 416.466,606.449C416.352,606.504 416.183,606.534 416.068,606.616C416.012,606.758 416.494,606.871 416.436,607.297C416.295,607.212 416.068,607.268 415.927,607.325C415.756,607.467 416.039,607.609 415.955,607.749C415.615,607.864 415.275,608.033 414.963,608.204C414.742,608.323 414.64,608.673 414.538,608.913C414.14,609.905 413.829,610.896 413.121,611.746C412.951,611.944 412.894,611.974 412.667,612.144C412.594,612.2 412.622,612.322 412.775,612.446C412.917,612.559 413.062,612.739 413.121,612.881C413.433,613.504 413.403,614.411 413.062,615.006C412.667,615.744 412.1,615.998 411.419,615.998C410.372,615.998 409.691,615.148 409.323,614.269C408.869,613.164 409.01,612.617 408.275,612.079C408.156,612.003 407.854,611.939 407.62,612.2C407.508,612.341 407.366,612.569 407.451,612.767C407.537,612.71 407.623,612.558 407.729,612.482C407.843,612.397 407.992,612.394 408.104,612.455C408.257,612.54 408.333,612.709 408.333,612.879C408.333,613.086 408.218,613.266 408.076,613.391C407.849,613.588 407.479,613.56 407.224,613.418C406.885,613.249 406.686,612.881 406.743,612.455C406.771,612.171 406.929,611.974 407.043,611.691C407.074,611.613 407.041,611.531 406.913,611.519C406.715,611.505 406.566,611.569 406.431,611.746M398.835,616.083L399.601,616.508C399.742,616.48 399.742,616.339 399.826,616.252C400.026,616.31 399.94,616.594 400.054,616.736C400.167,616.736 400.167,616.565 400.252,616.48C400.45,616.48 400.393,616.791 400.48,616.933C400.592,617.103 400.904,617.046 400.848,617.33L400.564,618.606C400.53,618.757 400.448,618.827 400.393,618.804C399.374,618.436 398.579,618.067 397.615,617.728C397.531,617.699 397.446,617.699 397.304,617.699L395.745,618.861C395.83,618.181 395.915,617.556 395.972,617.159C396,617.075 395.972,617.046 395.915,617.046C395.603,617.046 395.32,616.791 395.122,616.508C394.895,616.026 394.612,615.629 394.158,615.431C394.243,615.232 394.412,615.119 394.583,615.064C394.725,615.006 394.867,615.035 395.009,614.95C395.009,614.893 394.98,614.863 394.951,614.808C394.583,614.156 395.15,613.277 394.442,612.795C394.754,612.654 395.122,612.795 395.377,613.078L395.433,613.05C395.236,612.597 395.15,612.078 395.178,611.576C395.178,611.576 395.2,611.458 395.15,611.311C395.15,611.311 395.097,611.147 395.065,611.066C395.975,611.215 396.317,612.38 396.386,612.58L396.418,612.606L396.426,612.569C396.426,612.569 396.163,611.716 396.426,611.35C396.485,611.268 396.586,611.186 396.686,611.196C396.793,611.603 397.021,612.116 397.389,612.398C397.729,612.371 398.07,612.2 398.41,612.059C398.609,612.54 398.24,613.22 398.24,613.22L398.243,613.234L398.268,613.22C398.268,613.22 398.551,612.91 398.694,612.795C398.862,612.682 399.374,612.569 399.657,612.739C399.757,612.798 399.912,612.936 399.94,613.05C399.033,612.993 398.975,614.127 398.551,614.666L398.579,614.695C398.807,614.581 398.921,614.269 399.146,614.156C399.146,614.156 400.336,613.91 400.385,613.9C400.469,613.883 400.501,614.014 400.501,614.014C400.512,614.054 400.627,614.504 400.564,614.722C400.423,614.808 400.366,614.581 400.252,614.581C399.94,614.666 399.742,614.695 399.402,614.836L398.835,615.97C398.793,616.056 398.835,616.083 398.835,616.083M408.804,611.768L408.841,611.803C409.493,612.483 409.861,613.617 410.143,614.156C410.483,614.778 410.824,615.064 411.334,615.091C411.76,615.119 412.326,614.751 412.497,614.325C412.667,613.957 412.554,613.476 412.355,613.191C412.129,612.852 411.704,612.767 411.334,612.852C411.108,612.91 410.91,613.05 410.74,613.22C410.483,612.823 410.143,612.371 409.747,612.116C409.463,611.916 409.123,611.719 408.812,611.719L408.804,611.768M398.382,616.821C398.382,616.622 398.24,616.48 398.041,616.48C397.87,616.48 397.729,616.622 397.729,616.821C397.729,617.018 397.87,617.159 398.041,617.159C398.24,617.159 398.382,617.018 398.382,616.821" style="fill:rgb(35,31,32);fill-rule:nonzero;"/>
        <g id="path743" transform="matrix(0.8,0,0,-0.8,392.393,619.761)">
            <path d="M18.022,42.36L16.927,42.36L16.927,35.024C18.397,33.816 19.535,33.254 20.582,33.254C22.337,33.254 23.021,34.116 23.021,35.581L23.021,42.36L21.968,42.36L21.962,35.718C21.958,34.501 21.475,34.139 20.5,34.139C19.683,34.139 18.617,34.678 18.022,35.388L18.022,42.36ZM28.283,42.36L27.277,42.36L27.279,32.439L29.455,31.844C29.798,31.75 29.969,31.897 29.969,32.195L29.98,42.36L28.979,42.36L28.979,32.964L28.283,33.126L28.283,42.36ZM7.849,42.359L6.269,42.359C4.899,41.304 4.237,39.457 4.237,37.421C4.237,33.798 6.572,31.864 9.283,31.861C12.249,31.858 13.502,34.009 13.499,36.288C13.498,37.571 12.76,38.033 11.744,38.073L6.937,38.324C7.022,40.334 8.504,41.459 11.138,41.539L12.892,41.539L12.904,42.359L11.095,42.359C8.24,42.387 5.909,41.191 5.797,37.618L10.98,37.374C12.455,37.379 12.68,36.602 12.494,35.328C12.25,33.663 11.104,32.691 9.258,32.691C6.754,32.691 5.21,34.706 5.163,37.379C5.118,39.871 6.115,41.592 7.849,42.359ZM16.287,34.724C17.747,33.467 19.215,32.668 20.725,32.668C22.638,32.668 23.7,33.617 23.663,35.582L23.663,42.359L24.71,42.359L24.71,35.575C24.769,33.39 23.657,31.878 20.913,31.878C19.259,31.878 17.232,32.673 15.238,34.463L15.24,42.359L16.287,42.359L16.287,34.724ZM11.862,35.42C11.66,34.035 10.794,33.25 9.257,33.25C7.367,33.25 6.084,34.75 5.837,37.057L10.841,36.816C11.801,36.77 12.012,36.452 11.862,35.42ZM10.966,35.501C10.961,35.787 10.809,36.024 10.26,36.051L6.99,36.222C7.09,35.126 7.904,34.137 9.156,34.137C10.549,34.137 10.954,34.941 10.966,35.501ZM28.629,29.52C29.406,29.52 30.036,28.89 30.036,28.112C30.036,27.334 29.406,26.704 28.629,26.704C27.85,26.704 27.221,27.334 27.221,28.112C27.221,28.89 27.85,29.52 28.629,29.52Z" style="fill:rgb(35,31,32);fill-rule:nonzero;"/>
        </g>
    </g>
</svg>
